heart-multiple.svg

<svg fill="currentColor" viewBox="0 0 24 24"><path d="M13.5 20c-6.6-6.1-10-9.2-10-12.9C3.5 4 5.9 1.6 9 1.6c1.7 0 3.4.8 4.5 2.1 1.1-1.3 2.8-2.1 4.5-2.1 3.1 0 5.5 2.4 5.5 5.5 0 3.8-3.4 6.9-10 12.9M12 21.1C5.4 15.2 1.5 11.7 1.5 7v-.6c-.6.9-1 2-1 3.2 0 3.8 3.4 6.9 10 12.8z"/></svg>

<svg  viewBox="0 0 24 24" fill="currentColor"><path  d="M13.5,20C6.9,13.9 3.5,10.8 3.5,7.1C3.5,4 5.9,1.6 9,1.6C10.7,1.6 12.4,2.4 13.5,3.7C14.6,2.4 16.3,1.6 18,1.6C21.1,1.6 23.5,4 23.5,7.1C23.5,10.9 20.1,14 13.5,20M12,21.1C5.4,15.2 1.5,11.7 1.5,7C1.5,6.8 1.5,6.6 1.5,6.4C0.9,7.3 0.5,8.4 0.5,9.6C0.5,13.4 3.9,16.5 10.5,22.4L12,21.1Z"/></svg>
